resources/svg/microscope-fill.svg

<svg fill="currentColor" viewBox="0 0 24 24" xmlns="http://www.w3.org/2000/svg"><path d="M13.1962 2.26791L16.4462 7.89708C16.7223 8.37537 16.5584 8.98696 16.0801 9.2631L14.7806 10.0122L15.7811 11.7452L14.049 12.7452L13.0485 11.0122L11.75 11.7631C11.2717 12.0392 10.6601 11.8754 10.384 11.3971L8.5462 8.2146C6.49383 8.8373 5 10.7442 5 13C5 13.6253 5.1148 14.2238 5.32447 14.7756C6.0992 14.284 7.01643 14 8 14C9.68408 14 11.1737 14.8326 12.0797 16.1086L19.7681 11.6704L20.7681 13.4024L12.8898 17.9509C12.962 18.2892 13 18.6401 13 19C13 19.3427 12.9655 19.6773 12.8999 20.0006L21 20V22L4.00054 22.0012C3.3723 21.1653 3 20.1261 3 19C3 17.9927 3.29782 17.0551 3.81021 16.2702C3.29276 15.2948 3 14.1816 3 13C3 10.0047 4.88131 7.44875 7.52677 6.44942L7.13397 5.76791C6.58169 4.81133 6.90944 3.58815 7.86603 3.03586L10.4641 1.53586C11.4207 0.983577 12.6439 1.31133 13.1962 2.26791Z"/></svg>

<svg xmlns="http://www.w3.org/2000/svg" viewBox="0 0 24 24" fill="currentColor">
    <g>
        <path fill="none" d="M0 0H24V24H0z"/>
        <path d="M13.196 2.268l3.25 5.63c.276.477.112 1.089-.366 1.365l-1.3.75 1.001 1.732-1.732 1-1-1.733-1.299.751c-.478.276-1.09.112-1.366-.366L8.546 8.215C6.494 8.837 5 10.745 5 13c0 .625.115 1.224.324 1.776C6.1 14.284 7.016 14 8 14c1.684 0 3.174.833 4.08 2.109l7.688-4.439 1 1.732-7.878 4.549c.072.338.11.69.11 1.049 0 .343-.034.677-.1 1H21v2l-17 .001c-.628-.836-1-1.875-1-3.001 0-1.007.298-1.945.81-2.73C3.293 15.295 3 14.182 3 13c0-2.995 1.881-5.551 4.527-6.55l-.393-.682c-.552-.957-.225-2.18.732-2.732l2.598-1.5c.957-.552 2.18-.225 2.732.732z"/>
    </g>
</svg>
